X:419
T:Squirrel Hunters
C:John Hartford
N:Sharon Gilchrist Transcribed by Larry Tanner
R:bluegrass
L:1/8
Q:1/4=220
M:4/4
K:D
z8 |: "Em"e2 ed B2 Bd | ef ed B2 BA | "G"GA Bc d2 B2 | d2 c2 Bc d2 | "Em"e2 ed B2 Bd | 
ef ed Bd BA | "G"GA Bc d2 B2 | "D"[A3D3][AD] [A4D4] :|: "A "e2 eg a2 ag | ed ef g2 e2 | 
"G"GA Bc d2 B2 | d2 c2 Bc d2 | "A "e2 eg a2 ag | ed ef g2 e2 | "G"GA Bc dc B2 | 
"D"[A8D8] :| z8 | 


